X:36
T:How Sweet in the Woodlands.2voices. JJo.036
S:J.Jones MS,1801,N.Shrops.
A:N Shropshire
Z:Neil Brookes 2006
M:3/4
L:1/8
Q:3/4=40
K:C
[V:1]G2|c2 eded|c2c2d2|e2gfgf|{f}e4ef|g2agag|f>ga2zf|e2gffe|{e}d4::!
[V:2]z2|z6 |z4 D,2|E,2G,F,G,F,|{F}E,4E,F,|G,2A,G,A,G,|\
F,>G,A,2zF,|E,2G,F,F,E,|{E}D,4::!
[V:1]e2|d2dede|f2f2gf|e2egag|g4e2|Tdc/d/c2f2|Ted/e/d2c’g|!
[V:2]E,2|D,2D,E,D,E,|F,2F,2G,F,|E,2E,G,A,G,|G,4E,2|\
D,2[G,2G,,2]A,2|F,2D,2G,2|!
[V:1]f2e2 g/f/e/d/|c4zg|a2f2zf|e2defg|c’/a/g/f/e2Td2|{d}c4:|
[V:2]F,2E,2G,/F,/E,/D,/|[G,4C,4]zG,|A,2F,2zG,|\
E,2D,E,F,G,|(3A,G,F, E,2TD,2|C,4:|

